X:1
T:James Gibb editions
T:Erhöre mich, wenn ich rufe, SWV 289 - Schütz
T:#
%%score [ 1 2 ] 3
L:1/8
Q:1/4=108
M:2/2
K:G
V:1 treble nm="Soprano I"
V:2 treble nm="Soprano II"
V:3 bass nm="Continuo"
V:1
"^Erhöre mich, wenn ich rufe, SWV 289""^Heinrich Schütz\n(1585-1672)" E8 | G8- | G4 A4 | B8 | z8 | %5
w: Er-|hö\-|* re|mich,||
 z4 z2 B2 |[M:2/2] E2 GA B2 d2 | c4 B4 | z4 d4 | e2 dc d2 B2 | c4 B4 | z8 | A4 B2 AG | A2 F2 G4 | %14
w: er-|hö- re mich, wenn ich|ru- fe,|er-|hö- re mich, wenn ich|ru- fe,||er- hö- re mich,|wenn ich ru-|
 F4 B4- | B4 A4- | A4 G2 G2 | F4 F4 | E4 c4- | c4 B4 | B4 A2 (A2- | A2 ^GF) G4 | A4 z2 A2 | %23
w: fe, Gott|* mei\-|* ner Ge-|rech- tig-|keit, Gott|* mei-|ner Ge- rech\-|* * * tig-|keit, der|
 A2 A2 B4- | B2 cB A4- | A4 B4- | B4 G4 | (=F4- FEED | E8) | D4 d4- | d4 B4 | (G4- GFFE | ^D4 E4- | %33
w: du mich trö\-|* stest in Angst,|* sei|* mir|gnä\- * * * *||dig sei|* mir|gnä\- * * * *||
 E4 ^D4) | E4 z2 EF | G2 G2 z2 GA | B2 B2 z2 Bc | d6 B2 | e4 A4 | B8 | z4 z2 B2 | A2 F2 G2 GG | %42
w: |dig und er-|hö- re, und er-|hö- re. und er-|hö- re|mein Ge-|bet,|ver-|nimm mein Schrei- en, mein|
 FFFF E4 | z4 z2 e2 | d2 B2 c2 cc | BBBB A2 A2 | G2 E2 F2 FF | EEEE D2 z d | c2 A2 B4 | A4 c4- | %50
w: Kö- nig und mein Gott,|ver-|nimm mein Schrei- en, mein|Kö- nig un mein Gott, ver-|nimm mein Schrei- en, mein|Kö- nig un mein Gott, ver-|nimm mein Schrei-|en, mein|
 c4 B4- | B4 A4- | A4 G4- | G4 F4 | G8 | z8 | e8 | d4 d4 | ^c4 c4 | B8 | B8 | ^c4 c4 | %62
w: * Kö\-|* nig|* und|* mein|Gott,||mein|Kö- nig|und mein|Gott,|mein|Kö- nig|
[Q:1/4=105] (^d4[Q:1/4=101] e4- |[Q:1/4=97] e4)[Q:1/4=93] ^d4 |[Q:1/4=92] e16 |] %65
w: und *|* mein|Gott.|
V:2
 z8 | z8 | E8 | G8- | G4 A4 | B8 |[M:2/2] z4 z2 B2 | E2 GA B2 d2 | c4 B4 | z4 z2 d2 | e2 dc d2 B2 | %11
w: ||Er-|hö\-|* re|mich,|er-|hö- re mich, wenn ich|ru- fe,|er-|hö- re mich, wenn ich|
 c4 B4 | z2 F2 G2 FE | F2 F2 E4 | ^D4 G4- | G4 F4 | F4 E2 (E2- | E2 ^D^C) D4 | E4 e4- | e4 d4 | %20
w: ru- fe,|er- hö- re mich,|wenn ich ru-|fe, Gott|* mei-|ner Ge- rech\-|* * * tig-|keit. Gott|* mei-|
 d4 c4 | B6 B2 | A8 | z2 F2 F2 F2 | G6 AG | F8 | G4 E4 | (^C3 D/E/ D4- | D4 ^C4) | D8 | z4 d4- | %31
w: ner Ge-|rech- tig-|keit,|der du mich|trö- stest in|Angst,|sei mir|gnä\- * * *||dig,|sei|
 d4 B4 | (G4- GFFE | F8) | E4 z4 | z2 EF G2 G2 | z2 GA B2 B2 | z2 FG A2 D2 | (E>F G4) F2 | %39
w: * mir|gna\- * * * *||dig,|und er- hö- re,|und er- hö- re,|und er- hö- re|mein * * Ge-|
 G4 z2 B2 | A2 F2 G2 GG | FFFF E4 | z4 z2 e2 | d2 B2 c2 cc | BBBB A4 | z8 | z4 z2 A2 | %47
w: bet, ver-|nimm mein Schrei- en, mein|Kö- nig und mein Gott,|ver-|nimm mein Schrei- en, mein|Kö- nig und mein Gott,||ver-|
 G2 E2 F2 FB | A2 F2 G4 | F4 z4 | z8 | z8 | z8 | z8 | z4 e4- | e4 d4- | d4 ^c4- | c4 B4- | B4 ^A4 | %59
w: nimm mein Schrei- en, ver-|nimm mein Schrei-|en,|||||mein|* Kö\-|* nig|* und|* mein|
 B8 | z4 B4- | B4 A4- | A4 G4 | F4 F4 | G16 |] %65
w: Gott,|mein|* Kö\-|* nig|und mein|Gott.|
V:3
 E,8 | E,6 D,2 | C,4 A,,4 | E,6 D,2 | C,4 A,,4 | E,4 G,4 |[M:2/2] C,4 G,4 | C,4 G,4 | C,4 G,4 | %9
w: |||||||||
w: |||||||||
 C,4 G,,4 | C,4 G,4 | C,4 G,,4 | D,4 G,4 | D,4 E,4 | B,,4 G,,4 | A,,8 | B,,8 | B,,8 | C,8 | %19
w: ||||||7~~~~~~~~~~~6|7~~~~~~~~~6|4||
w: |||||||~~~~~~~~~~~4|||
 D,4- D,4 | E,8- | E,8 | A,,4 D,4- | D,4 D,4 | E,4 ^C,4 | D,4- D,4 | E,8 | A,,4- A,,4 | A,,8 | %29
w: 9 *|7~~~~~~6|||* 6||* 6||6 6|4|
w: 7~~~~~~ 6|~~~~~~~~4|||||||* 4||
 D,8 | G,,8 | G,,8 | B,,4 B,,4 | B,,8 | E,,4 E,4 | C,8 | G,,4 G,4 | D,3 E, F,2 G,2 | C,4 D,4 | %39
w: |||6 6|4||||* * 6 *|* 4~~~~~~3|
w: |||* 4|||||||
 G,,6 B,,2 | ^C,2 D,2 E,4- | E,2 ^D,2 E,2 E,,2 | A,,2 B,,2 E,,2 E,2 | F,2 ^G,2 A,4- | %44
w: |6 * *|4 * * *|6 * * *|6 * *|
w: ||2 * * *|||
 A,2 ^G,2 A,2 A,,2 | D,2 E,2 A,,4 | B,,2 ^C,2 D,4- | D,2 ^C,2 D,2 B,,2 | C,2 D,2 G,,4 | D,4 A,,4 | %50
w: 4 * * *||6 * *|4 * * *|||
w: 2 * * *|||2 * * *|||
 B,,8 | C,4- C,4 | D,8- | D,8 | E,8 | F,4 ^G,4 | A,8 | D,4- D,2 E,2 | F,8 | B,,8 | G,,8 | A,,8 | %62
w: 9~~~~~~~~~~8|7 6|3~~~~~~~~~4|~~~~~~~~~3||7 *|4|7 6 *|4|||9~~~~~~~~~~~8|
w: ||||||||||||
 B,,8- | B,,8 | E,16 |] %65
w: ~~~~~~~~~~~~~4|||
w: |||

